X: 42
T:Fireside Reel
% Nottingham Music Database
S:via PR
M:4/4
L:1/4
K:G
"D7"d|"G"g/2e/2d/2B/2 GA/2B/2|"C"c/2A/2B/2G/2 A/2G/2E/2G/2|\
"G"D/2G/2B/2d/2 gg|"D"f/2g/2a/2g/2 f/2d/2e/2f/2|
"G"g/2e/2d/2B/2 GA/2B/2|"C"c/2A/2B/2G/2 A/2G/2E/2G/2|\
"C"c/2A/2B/2G/2 "Am"A/2G/2E/2G/2|"D7"D/2G/2G/2F/2 "G"G::
"G"d|"G"g/2f/2g/2a/2 "D7"b/2a/2g/2f/2|"Em"g/2f/2e/2d/2 c/2B/2A/2G/2|\
"Am"E/2A/2A/2B/2 c/2B/2A/2G/2|"Am"E/2A/2A/2G/2 "D7"A/2d/2e/2f/2|
"G"g/2f/2g/2a/2 "D7"b/2a/2g/2f/2|"Em"g/2f/2e/2d/2 e/2d/2B/2d/2|\
"Am"c/2A/2B/2G/2 "C"A/2G/2E/2G/2|"D7"D/2G/2G/2F/2 "G"G:|


